www/assets/icons/airline_seat_recline_normal.svg

<svg width="24" height="24" viewBox="0 0 24 24" xmlns="http://www.w3.org/2000/svg" fill='currentColor'><path d="M7.59 5.6625C6.81 4.8825 6.81 3.6125 7.59 2.8325C8.37 2.0525 9.64 2.0525 10.42 2.8325C11.2 3.6125 11.2 4.8825 10.42 5.6625C9.63 6.4525 8.37 6.4525 7.59 5.6625ZM6 16.2525V7.2525H4V16.2525C4 19.0125 6.24 21.2525 9 21.2525H15V19.2525H9C7.34 19.2525 6 17.9125 6 16.2525ZM20 20.3225L14.93 15.2525H11.5V11.5725C12.9 12.7225 15.1 13.7325 17 13.7325V11.5725C15.34 11.5925 13.39 10.7025 12.33 9.5325L10.93 7.9825C10.74 7.7725 10.5 7.6025 10.24 7.4825C9.95 7.3425 9.62 7.2525 9.28 7.2525H9.25C8.01 7.2525 7 8.2625 7 9.5025V15.2525C7 16.9125 8.34 18.2525 10 18.2525H15.07L18.57 21.7525L20 20.3225Z"/></svg>

<svg xmlns="http://www.w3.org/2000/svg" width="24" height="24" viewBox="0 0 24 24" fill='currentColor'><path d="M7.59 5.663c-.78-.78-.78-2.05 0-2.83s2.05-.78 2.83 0 .78 2.05 0 2.83c-.79.79-2.05.79-2.83 0M6 16.252v-9H4v9c0 2.76 2.24 5 5 5h6v-2H9c-1.66 0-3-1.34-3-3m14 4.07-5.07-5.07H11.5v-3.68c1.4 1.15 3.6 2.16 5.5 2.16v-2.16c-1.66.02-3.61-.87-4.67-2.04l-1.4-1.55c-.19-.21-.43-.38-.69-.5-.29-.14-.62-.23-.96-.23h-.03A2.255 2.255 0 0 0 7 9.503v5.75c0 1.66 1.34 3 3 3h5.07l3.5 3.5z"/></svg>
